!!!!SEGMENT: pl-kk--kk-i-68--002_anonim--missa-kyrie.krn
!!!cenid: 17xx:2274
!!!COM: Anonim
!!!COM-rismid: pe30004985
!!!CDT:
!!!CNT:
!!!OPR: Missa
!!!OTL: Kyrie
!!!OMV: 002
!!!PDT:
!!!AGN: Sacred; Mass
!!!SMS-siglum: PL-Kk
!!!SMS-shelfmark: Kk.I.68
!!!SMS-shelfwork: 001-002 M
!!!SMS-variant: Baſso PL-Kk Kk.I.68:0011
!!!SMS-altvar: Baſso PL-Kk Kk.I.68:0015
!!!NIFC-rismid: 1001154624
!!!URL-scan: http://repozytorium.nifc.pl/skany/pl-kk-nut--i-68
!!!ONB-nifc: UWAGA: części Mszy: 1. Protexisti me, 2. Kyrie, 3. Alleluia, 4. Posuisti Domine, 5. Sanctus, 6. Benedictus, 7. Agnus Dei, 8. Dona nobis, 9. Deo gratias
**kern	**text	**kern	**text	**kern	**text
*part3	*part3	*part2	*part2	*part1	*part1
*staff3	*staff3	*staff2	*staff2	*staff1	*staff1
*Iempty	*	*Itenor	*	*Itenor	*
*I"Baſso	*	*I"Tenore Secundo	*	*I"Tenore Primo	*
*I'B	*	*I'T 2	*	*I'T 1	*
*clefF4	*	*clefC4	*	*clefC4	*
*k[]	*	*k[]	*	*k[]	*
*C:	*	*C:	*	*C:	*
*M3/2	*	*M3/2	*	*M3/2	*
*2\right	*	*2\right	*	*2\right	*
=1	=1	=1	=1	=1	=1
2.C/	Ky-	2.e\	Ky-	2.g\	Ky-
4D/	-ri-	4d\	-ri-	4f\	-ri-
2E\	-e	2c\	-e	2e\	-e
=2	=2	=2	=2	=2	=2
2.F\	Ky-	2.d\	Ky-	2.f\	Ky-
4G\	-ri-	4c\	-ri-	4e\	-ri-
2G\	-e	2B\	-e	2d\	-e
=3	=3	=3	=3	=3	=3
2c\	e-	4c\	e-	4e\	e-
.	.	4e\	.	4g\	.
2F\	-lei-	2d\	-lei-	2f\	-lei-
2F#X\	.	2c\	.	2e\	.
=4	=4	=4	=4	=4	=4
2G\	-son	2B\	-son	2d\	-son
2G\	Ky-	2B\	Ky-	2d\	Ky-
2G\	-ri-	2c\	-ri-	2e\	-ri-
=5	=5	=5	=5	=5	=5
2G\	-e	1d	-e	1f	-e
2B\	.	.	.	.	.
2c\	e-	2c\	e-	2e\	e-
=6	=6	=6	=6	=6	=6
!LO:LB:g=original	!	!	!	!	!
2G\	-lei-	2B\	-lei-	2d\	-lei-
1c	.	2d\	.	2f\	.
.	.	2c\	.	2e\	.
=7	=7	=7	=7	=7	=7
!	!	!	!	!LO:LB:g=original	!
2F\	.	2A/	.	2d\	.
1G	.	2e\	.	2c\	.
.	.	2d\	.	2B\	.
=8	=8	=8	=8	=8	=8
!	!	!LO:PB:g=original	!	!	!
2C/	-son	2e\	-son	2c\	-son
2G\	Ky-	2B\	Ky-	2d\	Ky-
4G\	-ri-	4B\	-ri-	4d\	-ri-
4G\	-e	4c\	-e	4e\	-e
=9	=9	=9	=9	=9	=9
2G\	e-	1d	e-	1f	e-
2B\	.	.	.	.	.
2c\	.	2c\	.	2e\	.
=10	=10	=10	=10	=10	=10
2B\	.	2B\	.	2d\	.
2G\	.	2d\	.	2f\	.
2c\	.	2c\	.	2e\	.
=11	=11	=11	=11	=11	=11
2F\	-lei-	2A\	-lei-	2d\	-lei-
1G	.	2e\	.	2c\	.
.	.	2d\	.	2B\	.
=12	=12	=12	=12	=12	=12
1.C	-son	1.e	-son	1.c	-son
=13||	=13||	=13||	=13||	=13||	=13||
*M3/2	*	*M3/2	*	*M3/2	*
!LO:LB:g=original	!	!LO:LB:g=original	!	!LO:LB:g=original	!
2C/	Chris-	2G/	Chris-	2c\	Chris-
2E/	-te	2G/	-te	2c\	-te
2C/	e-	2G/	e-	2c\	e-
=14	=14	=14	=14	=14	=14
1G	-lei-	2.B\	-lei-	2.d\	-lei-
!	!	!LO:N:vis=16	!	!	!
.	.	8c\L	.	8e\L	.
!	!	!LO:N:vis=16	!	!	!
.	.	8d\J	.	8f\J	.
2C/	-sn	2c\	-son	2e\	-son
=15	=15	=15	=15	=15	=15
2C/	Chris-	2c\	Chris-	2e\	Chris-
2E/	-te	2c\	-te	2e\	-te
2C/	e-	2c\	e-	2e\	e-
=16	=16	=16	=16	=16	=16
2G\	-lei-	2.d\	-lei-	2.f\	-lei-
2B\	.	.	.	.	.
.	.	8e\L	.	8g\L	.
.	.	8f\J	.	8a\J	.
2c\	-son	2e\	-son	2g\	-son
=17	=17	=17	=17	=17	=17
2C/	Chris-	4e\	Chris-	4g\	Chris-
.	.	4c\	.	4e\	.
4D/	-te	4A/	-te	4f\	-te
4E/	.	4G/	.	4e\	.
4F\	e-	4f\	e-	4d\	e-
4F#X\	.	4e\	.	4c\	.
=18	=18	=18	=18	=18	=18
2G\	-lei-	2e\	-lei-	2c\	-lei-
2GG/	-son	2d\	-son	2B\	-son
2r	.	2r	.	2r	.
=19	=19	=19	=19	=19	=19
!LO:LB:g=original	!	!LO:LB:g=original	!	!LO:LB:g=original	!
2C/	Chris-	2e\	Chris-	2c\	Chris-
2C/	-te	2e\	-te	2G/	-te
2E\	e-	2c\	e-	2B-X\	e-
=20	=20	=20	=20	=20	=20
2F\	-lei-	1c	-lei-	2A\	-lei-
2C/	.	.	.	2G\	.
2F\	-son	2c\	-son	2A\	-son
=21	=21	=21	=21	=21	=21
2F\	Chris-	2d\	Chris-	2f\	Chris-
2F\	-te	4d\	-te	4f\	-te
.	.	4c\	.	4e\	.
4F\	e-	4B\	e-	4d\	e-
4F#X\	.	4A\	.	4c\	.
=22	=22	=22	=22	=22	=22
2G\	-lei-	2A/	-lei-	2c\	-lei-
2G\	-sn	2G/	-son	2B\	-son
2r	.	2r	.	2r	.
=23	=23	=23	=23	=23	=23
1G	Chris-	1d	Chris-	1B	Chris-
2c\	-te	2e\	-te	2c\	-te
=24	=24	=24	=24	=24	=24
*	*ij	*	*ij	*	*ij
2F\	Chris-	1B	Chris-	1d	Chris-
2G\	.	.	.	.	.
2C/	-te	2c\	-te	2e\	-te
*	*Xij	*	*Xij	*	*Xij
=25	=25	=25	=25	=25	=25
!LO:LB:g=original	!	!	!	!	!
2F\	e-	2f\	e-	2d\	e-
1G	-lei-	2e\	-lei-	2c\	-lei-
.	.	2d\	.	2B\	.
=26	=26	=26	=26	=26	=26
!	!	!	!	!LO:LB:g=original	!
1C	-son	1e	-son	1c	-son
2r	.	2r	.	2r	.
=27	=27	=27	=27	=27	=27
!	!	!LO:LB:g=original	!	!	!
2G\	Chris-	1d	Chris-	1B	Chris-
2F\	.	.	.	.	.
2E\	-te	2e\	-te	2c\	-te
=28	=28	=28	=28	=28	=28
*	*ij	*	*	*	*ij
2G\	Chris-	1d	Chris-	1f	Chris-
2B\	.	.	.	.	.
2c\	-te	2c\	-te	2e\	-te
*	*Xij	*	*	*	*Xij
=29	=29	=29	=29	=29	=29
2F\	e-	2A\	e-	2d\	e-
1G	-lei-	2c\	-lei-	2e\	-lei-
.	.	2B\	.	2d\	.
=30	=30	=30	=30	=30	=30
1.C	-son.	1.G	-son.	1.e	-son
=31||	=31||	=31||	=31||	=31||	=31||
*M3/2	*	*M3/2	*	*M3/2	*
!LO:LB:g=original	!	!LO:LB:g=original	!	!LO:LB:g=original	!
2C/	Ky-	1G	Ky-	1c	Ky-
2E/	.	.	.	.	.
2C/	-ri-	2G/	-ri-	2e\	-ri-
=32	=32	=32	=32	=32	=32
2G\	-e	1d	-e	1f	-e
2B\	.	.	.	.	.
2c\	e-	2c\	e-	2e\	e-
=33	=33	=33	=33	=33	=33
1.G	-lei-	4B\	-lei-	4d\	-lei-
.	.	4c\	.	4e\	.
.	.	4d\	.	4f\	.
.	.	4c\	.	4e\	.
.	.	4d\	.	4f\	.
.	.	4B\	.	4d\	.
=34	=34	=34	=34	=34	=34
2C/	-son	2c\	-son	2e\	-son
2c\	Ky-	2c\	Ky-	2e\	Ky-
2G\	-ri-	2d\	-ri-	2f\	-ri-
=35	=35	=35	=35	=35	=35
2C/	-e	2e\	-e	2g\	-e
2E/	e-	2c\	e-	2e\	e-
2C/	.	2e\	.	2g\	.
=36	=36	=36	=36	=36	=36
2G\	-lei-	2d\	-lei-	2f\	-lei-
2B\	.	2B\	.	2d\	.
2G\	.	2d\	.	2f\	.
=37	=37	=37	=37	=37	=37
!LO:LB:g=original	!	!	!	!LO:LB:g=original	!
2c\	.	2c\	.	2e\	.
2E/	.	1G	.	2c\	.
2C/	.	.	.	2e\	.
=38	=38	=38	=38	=38	=38
!	!	!LO:LB:g=original	!	!	!
1G	.	2B\	.	2d\	.
.	.	2d\	.	2B\	.
2F#X\	.	2A\	.	2c\	.
=39	=39	=39	=39	=39	=39
1G	-son	1B	-son	1d	-son
2c\	e-	2G/	e-	2e\	e-
=40	=40	=40	=40	=40	=40
2d\	-lei-	1.G	-lei-	2f\	-lei-
2c\	.	.	.	2e\	.
2B\	.	.	.	2d\	.
=41	=41	=41	=41	=41	=41
2c\	-son	2G/	-son	2e\	-son
1C	e-	1G	e-	2c\	e-
.	.	.	.	2e\	.
=42	=42	=42	=42	=42	=42
1.C	-lei-	1.A	-lei-	1.f	-lei-
=43	=43	=43	=43	=43	=43
1.C	-son	1.G	-son.	1.e	-son.
==	==	==	==	==	==
*-	*-	*-	*-	*-	*-
!!!system-decoration: [(s1,s2,s3)]
!!!ENC: Kamil Watkowski
!!!END: 2021-08-06
